Sources/FrostedUI/Resources/Icons.xcassets/documentLines12.imageset/document-lines-12.svg

<svg width="12" height="12" viewBox="0 0 12 12" fill="none" xmlns="http://www.w3.org/2000/svg" data-fui-icon="true">
  <path
    d="M5.96094 0.625C6.42501 0.625036 6.87009 0.809557 7.19824 1.1377L9.8623 3.80176C10.1905 4.12992 10.375 4.575 10.375 5.03906V9.625C10.375 10.5915 9.59151 11.375 8.625 11.375H3.375C2.40851 11.375 1.625 10.5915 1.625 9.625V2.375C1.625 1.4085 2.4085 0.625 3.375 0.625H5.96094ZM3.375 2.125C3.23693 2.125 3.125 2.23693 3.125 2.375V9.625C3.125 9.76308 3.23692 9.875 3.375 9.875H8.625C8.76309 9.875 8.875 9.76309 8.875 9.625V5.375H7.375C6.40848 5.375 5.625 4.59149 5.625 3.625V2.125H3.375ZM7.3125 7.6875C7.72671 7.6875 8.0625 8.02329 8.0625 8.4375C8.0625 8.85171 7.72671 9.1875 7.3125 9.1875H4.6875C4.27329 9.1875 3.9375 8.85171 3.9375 8.4375C3.9375 8.02329 4.27329 7.6875 4.6875 7.6875H7.3125ZM6.07324 5.63281C6.48731 5.63299 6.82324 5.96871 6.82324 6.38281C6.82324 6.79692 6.48731 7.13264 6.07324 7.13281H4.6875C4.27329 7.13281 3.9375 6.79703 3.9375 6.38281C3.9375 5.9686 4.27329 5.63281 4.6875 5.63281H6.07324ZM7.125 3.625C7.125 3.76308 7.23692 3.875 7.375 3.875H7.81445L7.125 3.18555V3.625Z"
    fill="currentColor"
  />
</svg>

<svg xmlns="http://www.w3.org/2000/svg" width="12" height="12" fill="none" data-fui-icon="true" viewBox="0 0 12 12"><path fill="currentColor" d="M5.96.625c.465 0 .91.185 1.238.513l2.664 2.664c.329.328.513.773.513 1.237v4.586a1.75 1.75 0 0 1-1.75 1.75h-5.25a1.75 1.75 0 0 1-1.75-1.75v-7.25c0-.966.784-1.75 1.75-1.75zm-2.585 1.5a.25.25 0 0 0-.25.25v7.25c0 .138.112.25.25.25h5.25a.25.25 0 0 0 .25-.25v-4.25h-1.5a1.75 1.75 0 0 1-1.75-1.75v-1.5zm3.938 5.563a.75.75 0 0 1 0 1.5H4.688a.75.75 0 0 1 0-1.5zm-1.24-2.055a.75.75 0 0 1 0 1.5H4.687a.75.75 0 1 1 0-1.5zm1.052-2.008c0 .138.112.25.25.25h.44l-.69-.69z"/></svg>
